gitgui/data/icons/scalable/actions/git-branch-symbolic.svg

<?xml version="1.0" encoding="UTF-8"?>
<svg xmlns="http://www.w3.org/2000/svg" height="16px" viewBox="0 0 16 16" width="16px"><g fill="#222222"><path d="m 3.949219 1 c -1.082031 0.027344 -1.949219 0.914062 -1.949219 2 c 0 0.714844 0.382812 1.375 1 1.730469 v 10.269531 h 2 v -10.269531 c 0.617188 -0.355469 1 -1.015625 1 -1.730469 c 0 -1.105469 -0.894531 -2 -2 -2 c -0.015625 0 -0.03125 0 -0.046875 0 z m 0.050781 1 c 0.550781 0 1 0.449219 1 1 s -0.449219 1 -1 1 s -1 -0.449219 -1 -1 s 0.449219 -1 1 -1 z m 0 0"/><path d="m 11 3 v 4 c 0 0.84375 -0.1875 1.292969 -0.441406 1.550781 c -0.253906 0.253907 -0.691406 0.449219 -1.558594 0.449219 h -0.003906 l -2.019532 0.015625 c -1.070312 0.007813 -2.027343 0.511719 -2.746093 1.226563 c -0.71875 0.710937 -1.230469 1.675781 -1.230469 2.757812 h 2 c 0 -0.417969 0.238281 -0.941406 0.640625 -1.34375 c 0.402344 -0.398438 0.9375 -0.640625 1.351563 -0.644531 l 2.007812 -0.011719 c 1.191406 0 2.253906 -0.304688 2.984375 -1.050781 c 0.730469 -0.742188 1.015625 -1.792969 1.015625 -2.949219 v -4 z m 0 0"/><path d="m 15 5 h -6 l 3 -4 z m 0 0"/></g></svg>

<svg xmlns="http://www.w3.org/2000/svg" width="16" height="16"><g fill="#222"><path d="M3.95 1A1.998 1.998 0 0 0 3 4.73V15h2V4.73A1.998 1.998 0 0 0 4 1h-.047zM4 2c.55 0 1 .45 1 1s-.45 1-1 1-1-.45-1-1 .45-1 1-1zm0 0"/><path d="M11 3v4c0 .844-.188 1.293-.441 1.55C10.305 8.806 9.867 9 9 9h-.004l-2.02.016c-1.07.007-2.027.511-2.746 1.226C3.512 10.953 3 11.918 3 13h2c0-.418.238-.941.64-1.344.403-.398.938-.64 1.352-.644L9 11c1.191 0 2.254-.305 2.984-1.05C12.714 9.206 13 8.155 13 7V3zm0 0"/><path d="M15 5H9l3-4zm0 0"/></g></svg>
